!!!OTL: "Fruehlingshoffnung" WENN DER SCHNEE VON DER ALMA WEGAGEHT
!!!ARE: Europa, Mitteleuropa, Steiermark
!!!SCT: Z1260
!!!YEM: Copyright 1995, estate of Helmut Schaffrath.
**kern
*ICvox
*Ivox
*M3/4
*k[b-e-a-d-g-]
*D-:
{8.a-
16b-
=1
4a-
8dd-
8dd-
8dd-
8dd-
=2
8.gg-
16gg-
4cc}
{8a-
8b-
=3
8.a-
16cc
8cc
8cc
8b-
8cc
=4
8.ff
16ff
4dd-}
{16a-
16b-
8cc
=5
8.dd-
16ee-
8ff
8ee-
8dd-
8cc
=6
8.gg-
16ff
8ee-
8dd-}
{8cc
8b-
=7
8a-
8aa-
8aa-
8aa-
8gg-
8cc
=8
4dd-
8r}
{8a-
8b-
8cc
=9
4dd-
8f
8a-
8dd-
8ff
=10
8.gg-
16ff
4.ee-}
{8dd-
=11
8cc
8b-
8a-
8e-
8b-
8a-
=12
8a-
8g-
8f
8a-
8b-}
{8cc
=13
4dd-
8f
8a-
8dd-
8ff
=14
8gg-
8ff
4.ee-}
{8dd-
=15
8cc
8b-
8a-
8e-
8b-
8a-
=16
4d-
8r}
{8A-
8B-
8c
=17
4d-
8f
8a-
8dd-
8ff}
=18
{8gg-
16r
16ff
8gg-
16r
16ff
4ee-
=19
8gg-
16r
16ff
8gg-
16r
16ff
4ee-}
=20
{8ff
16r
16ee-
8ff
16r
16ee-
4dd-
=21
8d-
8f
8a-
8dd-
8ff
8aa-}
=22
{8bb-
8aa-
8gg-
8ff
8ee-
8dd-
=23
8cc
8b-
8a-
8e-
8b-
8a-
=24
4d-
8dd-
8r}
==
!!!AGN: Natur und Welt
!! Die letzten 16 Takte werden auf verschiedene Silben gesungen.
!!!ONB: ESAC (Essen Associative Code) Database: ZUCCAL
!!!AMT: simple triple
!!!AIN: vox
!!!EED: Helmut Schaffrath
!!!EEV: 1.0
*-
